X:169
T:Rondeau d'Ernest Lurdes 2
C:trad
A:Gers
O:France
Z:S. Piron
M:6/8
L:1/8
Q:1/4=180
K:C
ece gag|ece gag|ecd e2g|1gfe d3:|2dcd c3|
|:e2 g gfe|dcd e2c|e2 g gfe|ded c3:||
